X:76
T:All Around My Hat
Z:Jack Campin, http://www.campin.me.uk/
F:Jack Campin's Nine-Note Tunebook
% last edit 03-02-2013
M:6/8
L:1/8
Q:3/8=90
K:F
z|F2F G2E|F3 A2B|c3  B2G|(F2E) C2
z|F2F G2E|F3 A2B|c2c d2B| c3-  c2||
c|d2B B2d|c3 G2A|B2A c2A|(F2E) C2
C|F2F G2E|F3 A2B|c3  B2G| F3-  F2|]

